korla/apps/scalable/sk1.svg

<svg clip-rule="evenodd" fill-rule="evenodd" stroke-linejoin="round" stroke-miterlimit="2" viewBox="0 0 48 48" xmlns="http://www.w3.org/2000/svg">
 <g transform="matrix(1.08486 0 0 1.08486 -2.03672 -2.03672)" fill-rule="nonzero">
  <path d="m16 16.791v26.418c0 .438-.434.791-.974.791h-10.052c-.54 0-.974-.353-.974-.791v-26.418c0-.438.434-.791.974-.791h10.052c.54 0 .974.353.974.791z" fill="#3f3f3f"/>
  <path d="m4.791 16h26.418c.438 0 .791-.434.791-.974v-10.052c0-.54-.353-.974-.791-.974h-26.418c-.438 0-.791.434-.791.974v10.052c0 .54.353.974.791.974z" fill="#0169c9"/>
  <path d="m16.791 44h26.418c.438 0 .791-.434.791-.974v-10.052c0-.54-.353-.974-.791-.974h-26.418c-.438 0-.791.434-.791.974v10.052c0 .54.353.974.791.974z" fill="#fdca01"/>
  <path d="m44 4.791v26.418c0 .438-.434.791-.974.791h-10.052c-.54 0-.974-.353-.974-.791v-26.418c0-.438.434-.791.974-.791h10.052c.54 0 .974.353.974.791z" fill="#e51ae5"/>
 </g>
</svg>

<svg style="clip-rule:evenodd;fill-rule:evenodd;stroke-linejoin:round;stroke-miterlimit:2" version="1.1" viewBox="0 0 48 48" xmlns="http://www.w3.org/2000/svg">
 <g transform="matrix(1.08486,0,0,1.08486,-2.03672,-2.03672)">
  <path d="M16,16.791L16,43.209C16,43.647 15.566,44 15.026,44L4.974,44C4.434,44 4,43.647 4,43.209L4,16.791C4,16.353 4.434,16 4.974,16L15.026,16C15.566,16 16,16.353 16,16.791Z" style="fill-rule:nonzero;fill:rgb(63,63,63)"/>
 </g>
 <g transform="matrix(1.08486,0,0,1.08486,-2.03672,-2.03672)">
  <path d="M4.791,16L31.209,16C31.647,16 32,15.566 32,15.026L32,4.974C32,4.434 31.647,4 31.209,4L4.791,4C4.353,4 4,4.434 4,4.974L4,15.026C4,15.566 4.353,16 4.791,16Z" style="fill-rule:nonzero;fill:rgb(1,105,201)"/>
 </g>
 <g transform="matrix(1.08486,0,0,1.08486,-2.03672,-2.03672)">
  <path d="m16.791 44h26.418c0.438 0 0.791-0.434 0.791-0.974v-10.052c0-0.54-0.353-0.974-0.791-0.974h-26.418c-0.438 0-0.791 0.434-0.791 0.974v10.052c0 0.54 0.353 0.974 0.791 0.974z" style="fill-rule:nonzero;fill:rgb(253,202,1)"/>
 </g>
 <g transform="matrix(1.08486,0,0,1.08486,-2.03672,-2.03672)">
  <path d="M44,4.791L44,31.209C44,31.647 43.566,32 43.026,32L32.974,32C32.434,32 32,31.647 32,31.209L32,4.791C32,4.353 32.434,4 32.974,4L43.026,4C43.566,4 44,4.353 44,4.791Z" style="fill-rule:nonzero;fill:rgb(229,26,229)"/>
 </g>
</svg>
